tools/download-figma-icons/icons/action/scale.svg

<svg width="24" height="24" viewBox="0 0 24 24" fill="none" xmlns="http://www.w3.org/2000/svg"><path d="M22.425 2.25c0-.075 0-.075 0 0-.15-.3-.375-.525-.6-.6-.15-.15-.3-.15-.45-.15h-6.75c-.6 0-1.125.525-1.125 1.125s.525 1.125 1.125 1.125h4.05l-5.55 5.55c-.45.45-.45 1.125 0 1.575.225.225.525.3.825.3.3 0 .6-.075.825-.3l5.475-5.55v4.05c0 .6.525 1.125 1.125 1.125S22.5 9.975 22.5 9.375v-6.75c0-.15 0-.3-.075-.375ZM9.3 13.05l-5.55 5.625v-4.05c0-.6-.525-1.125-1.125-1.125S1.5 14.025 1.5 14.625v6.75c0 .15 0 .3.075.375.15.3.3.525.6.6.15.15.3.15.45.15h6.75c.6 0 1.125-.525 1.125-1.125s-.525-1.125-1.125-1.125h-4.05l5.55-5.55c.45-.45.45-1.125 0-1.575A1.16 1.16 0 0 0 9.3 13.05Z" fill="currentColor"/></svg>

<svg width="24" height="24" viewBox="0 0 24 24" fill="none" xmlns="http://www.w3.org/2000/svg">
<path d="M22.425 2.25C22.425 2.175 22.425 2.175 22.425 2.25C22.275 1.95 22.05 1.725 21.825 1.65C21.675 1.5 21.525 1.5 21.375 1.5H14.625C14.025 1.5 13.5 2.025 13.5 2.625C13.5 3.225 14.025 3.75 14.625 3.75H18.675L13.125 9.3C12.675 9.75 12.675 10.425 13.125 10.875C13.35 11.1 13.65 11.175 13.95 11.175C14.25 11.175 14.55 11.1 14.775 10.875L20.25 5.325V9.375C20.25 9.975 20.775 10.5 21.375 10.5C21.975 10.5 22.5 9.975 22.5 9.375V2.625C22.5 2.475 22.5 2.325 22.425 2.25Z" fill="black"/>
<path d="M9.3 13.05L3.75 18.675V14.625C3.75 14.025 3.225 13.5 2.625 13.5C2.025 13.5 1.5 14.025 1.5 14.625V21.375C1.5 21.525 1.5 21.675 1.575 21.75C1.725 22.05 1.875 22.275 2.175 22.35C2.325 22.5 2.475 22.5 2.625 22.5H9.375C9.975 22.5 10.5 21.975 10.5 21.375C10.5 20.775 9.975 20.25 9.375 20.25H5.325L10.875 14.7C11.325 14.25 11.325 13.575 10.875 13.125C10.425 12.675 9.75 12.675 9.3 13.05Z" fill="black"/>
</svg>
